X: 1
T: the Drunken Parson
O: Trad.
R: jig
Z: 2014 John Chambers <jc:trillian.mit.edu>
S: Image from George Meikle, via Sylvia Miskoe
N: Part of a set for Berwick Johnnie, in a dance program from 2012
N: Other versions have all of bar 11 a major chord.
M: 6/8
L: 1/8
K: G
 D |\
"G"GBB "D7"Acc | "G"Bdd  "C"c2e | "G"dBB "D7"cAA | "G"BGG "D"A2D |\
"G"GBB "D7"Acc | "G"Bdd  "C"c2e | "G"dBB "D7"cAd | "G"BGG G2 :|
|: D |\
"G"GBd     gfg | "C"ecc     c2B |"Am"Ace "A7"aga | "D7"fdd d2B |\
"G"GBd     gfg | "C"ecc "Am"c2e | "G"dBB "D7"cAd | "G"BGG G2 :|
